X:10
T:In the Bleak Midwinter
R:March
C:Gustav Holst 1906
O:Germany
Z:Paul Hardy's Xmas Tunebook 2019 (see www.paulhardy.net). Creative Commons cc by-nc-sa licenced.
M:4/4
L:1/4
Q:1/4=120
K:G
"G" B>c d B|"Em" A2 G z|"Am" A>B A E|"D" A2-A z|"G" B>c d B|"Em" A2 G z|"Am" A B "D7" A>G|"G" G4|
"C" c>B c d|"Am"e2 "Em" B2|"G" d B A G|"D" F3 z|"G" B>c d B|"Em" A2 G z|"Am" A B "D" A>G|"G" G4|]
W:In the bleak midwinter frosty wind made moan,
W:Earth stood hard as iron, water like a stone;
W:Snow had fallen, snow on snow, snow on snow,
W:In the bleak midwinter, long a go.
W:
W:Angels and Archangels may have traveled there
W:Cherubim and Seraphim thronged the air
W:But only his Mother in her maiden bliss
W:Worshiped the beloved with a kiss
W:
W:What can I give him? Poor as I am
W:If I were a shepherd I would give a lamb
W:If I were a wise man I would do my part
W:But what I can I give him, give him my heart
W:
W:(Christina Rosetti, 1872)